X:1
T:Saron
N:casglwyd gan ifor ceri cyn 1820
M:3/4
L:1/4
Q:100
K:D %Transposed from G
D/E/|FFG|AAF|D/F/ D D/E/|FBA/B/|AFE|D2:||
A/G/|FGA|Bdc|BAA/G/|FED/E//F//|GGF|E2D/E/|
FFG|AAF|D/F/DD/E/|FBA/B/|AFE|D2:||
